X:1
T: Cumernad House
C:
R:Strathspey
Q: 128
K:G
M:4/4
L:1/16
|:G3A|B3A B3e dB3 A3G|E2D2 E2G2 A4 B3d|e3d B3g dB3 A3G|D3E G3A G4 G3A|
B3A B3e dB3 A3G|E2D2 E2G2 A4 B3d|e3d B3g dB3 A3G|D3E G3A G4 B3A|
G2A2 B2c2 d4g4|d2cB cBAG d4 g3f|e2f2 g2a2 f4 e3d|B4 e3f e4 d2ef|
g2f2 e2d2 B4 g4|d2cB cBAG A4 B2d2|e2d2 egfg d2cB cBAG|D3E G3A G4:|
